X:9
T:manipulating colors with postscript info
M:none
L:1/16
Q: 1/4=40
K:C
%%postscript /SL{1 0 0 setrgbcolor M RC RL RC closepath fill 0 0 0 setrgbcolor}!
%%postscript /dSL{1 0 0 setrgbcolor M [4] 0 setdash .8 SLW RC stroke  0 0 0 setrgbcolor [] 0 setdash}!
%%staves [1 2]
%%tuplets 2 0 2
V:1 clef=treble
[M:2/4][I:postscript /hd{xymove 0 1 0 RGB 3.5 2 RM -2 3.5 -9 -0.5 -7 -4 RC 2 -3.5 9 0.5 7 4 RC fill 0 0 0 RGB}def](14:8(ABcdefgagfedcB) | [M:1/2] [I:postscript /Hd{xymove 0 0 1 RGB 3 1.6 RM -1 1.8 -7 -1.4 -6 -3.2 RC 1 -1.8 7 1.4 6 3.2 RC 0.5 0.3 RM 2 -3.8 -5 -7.6 -7 -3.8 RC -2 3.8 5 7.6 7 3.8 RC fill 0 0 0 RGB}def]c'8| [I:postscript /HD{xymove 1 1 0 RGB -2.7 1.4 RM 1.5 2.8 6.9 0 5.3 -2.7 RC -1.5 -2.8 -6.9 0 -5.3 2.7 RC 8.3 -1.4 RM 0 1.5 -2.2 3 -5.6 3 RC -3.4 0 -5.6 -1.5 -5.6 -3 RC 0 -1.5 2.2 -3 5.6 -3 RC 3.4 0 5.6 1.5 5.6 3 RC fill 0 0 0 RGB}def][M:1/1]C16 |](abc'd')|
V:2 clef=bass
[M:1/8]  [I:postscript /hd{xymove .7 .3 0 RGB 3.5 2 RM -2 3.5 -9 -0.5 -7 -4 RC 2 -3.5 9 0.5 7 4 RC fill 0 0 0 RGB}def].(.G,2| [M:3/8].C2.G,2.C2 | [M:1/2] [I:postscript /Hd{xymove 1 0 0 RGB 3 1.6 RM -1 1.8 -7 -1.4 -6 -3.2 RC 1 -1.8 7 1.4 6 3.2 RC 0.5 0.3 RM 2 -3.8 -5 -7.6 -7 -3.8 RC -2 3.8 5 7.6 7 3.8 RC fill 0 0 0 RGB}def]C,8| [I:postscript /HD{xymove 1 0 1 RGB -2.7 1.4 RM 1.5 2.8 6.9 0 5.3 -2.7 RC -1.5 -2.8 -6.9 0 -5.3 2.7 RC 8.3 -1.4 RM 0 1.5 -2.2 3 -5.6 3 RC -3.4 0 -5.6 -1.5 -5.6 -3 RC 0 -1.5 2.2 -3 5.6 -3 RC 3.4 0 5.6 1.5 5.6 3 RC fill 0 0 0 RGB}def][M:1/1] C16) |]z4|



%END OF Symboles.abc
%see too SpecialHeadsAndMarks.abc

